hackathon/svg-icons/src/components/icons/source/robotic-hand.svg

<svg fill="none" height="256" viewBox="0 0 256 256" width="256" xmlns="http://www.w3.org/2000/svg"><g fill="#000"><path d="m70.2218 240.672-1.0197-.672h6.8c1.0607 0 2.0786-.421 2.8286-1.171l4-4c1.2179-1.218 1.5196-3.077.7518-4.616l-.2233-.449 5.9072-1.968c.5876-.198 1.1232-.53 1.5643-.967l3.5393-3.54v-.001c5.632-1.029 10.345-4.87 12.487-10.181.532-1.159.961-2.364 1.281-3.6l14.693-14.693v.002c.746-.747 1.168-1.759 1.171-2.816v-4h12c1.259 0 2.445-.593 3.2-1.6l12-16-.028-.02c.528-.682.819-1.518.828-2.38v-8c0-1.902-1.337-3.54-3.2-3.92l-.239-.048.091-.032.612-.204c1.634-.544 2.736-2.073 2.736-3.796v-12c0-1.061-.421-2.079-1.171-2.829s-1.768-1.171-2.829-1.171h-7.661c2.331-1.502 4.506-3.236 6.489-5.171 1.561-1.563 1.561-4.095 0-5.658l-8-8c-.994-.992-2.437-1.392-3.8-1.051l-20.9 5.223v.002c2.068-3.382 3.783-6.968 5.116-10.7l3.532-2.355v-.002c5.307-3.55 9.626-8.391 12.552-14.0678l4.968-7.4556c1.659-2.4535 1.979-5.5748.848-8.3145-1.13-2.7375-3.559-4.725-6.466-5.2927-2.909-.5661-5.905.3625-7.982 2.475l-9.34 9.3394-15.757 11.8285v.0232c-.504.3643-.914.8393-1.2 1.3893-2.5553 5.1072-5.5625 9.9752-8.9874 14.5422l-6.4608 8.617-2.6071 2.628h-2.3446c-1.5161 0-2.9019.856-3.5804 2.213l-3.7553 7.516-8.1838 9.094-1.6518-1.651c-.7268-.711-1.7-1.113-2.7161-1.124l.7-2.8c2.1911-8.753 1.8393-17.95-1.0161-26.508-.3357-1.006-1.0571-1.84-2.0053-2.315-.95-.475-2.0483-.551-3.0554-.217l-12 4c-1.1946.398-2.1339 1.337-2.5321 2.532l-2.2036 6.628c-.9839 2.94-2.6357 5.609-4.8233 7.804-1.5625 1.562-1.5625 4.094 0 5.657l6.8608 6.861c0 .103-.0322.203-.0322.312v9.336l-2.0607 1.236v-.002c-1.2053.723-1.9428 2.023-1.9446 3.428v20h.0446c-.0143.618.1143 1.229.375 1.788l3.2607 6.52-2.9517 8.855-6.5162 3.255v.002c-.6232.314-1.1535.782-1.541 1.361l-8 12c-.6375.955-.8339 2.137-.5393 3.246.2946 1.111 1.0518 2.041 2.0803 2.554l3.9483 1.971-4.3 6.448h-1.8607c-1.3375 0-2.5857.668-3.3286 1.78l-15.999981 24c-.817875 1.227-.894627 2.806-.198211 4.108.694632 1.3 2.051792 2.112 3.526762 2.112h60.00003c1.516 0 2.9018-.855 3.5803-2.212l4-8c.9018-1.804.3179-3.997-1.3607-5.116zm9.7805-18.223v-2.449c0-.619-.1428-1.232-.4196-1.787l-4-8c-.3411-.681-.8678-1.25-1.5196-1.641l-20-12c-.2536-.152-.5215-.275-.8-.368l-8.2035-2.732 1.8268-5.472h4.1714l15.1127 7.555.0447.024v.001c.5553.277 1.1678.42 1.7875.42h2.3446l1.6554 1.655v2.345c-.0089 1.523.85 2.92 2.2125 3.6l8 4c.4071.2.8446.329 1.2946.38-.3929 1.941-.4589 3.936-.1946 5.9.3232 2.332 1.3285 4.518 2.891 6.281l-.3643.364zm19.6197-12.745c-2.0482 4.352-5.6 6.207-7.0286 5.535h.0018c-.8286-.596-1.3339-1.542-1.3696-2.562-.2286-2.195.1732-4.407 1.1571-6.38 1.0161-2.843 3.4053-4.977 6.3428-5.668.2357-.005.4697.039.684.132.8285.597 1.3335 1.543 1.3695 2.563.229 2.194-.173 4.407-1.157 6.38zm16.38-25.704v6.345l-8.36 8.355c-.933-2.255-2.652-4.095-4.84-5.177-4.9871-2.351-11.0836.052-15.2317 5.456l-.5517.139-2.5643.639-4.4518-2.228v-1.529c0-1.06-.4215-2.078-1.1715-2.828l-4-4c-.3714-.37-.8107-.665-1.2964-.865-.1285-.055-.2803-.044-.4-.087-.3589-.123-.7339-.198-1.1125-.22h-3.1071l-15.1232-7.564h-.0018c-.5536-.282-1.1661-.432-1.7875-.436h-5.5287l-1.6768-3.348 5.7838-6.423h.0017c9.6448 2.539 18.8983 6.384 27.5036 11.426l5.8555 3.517c.6232.373 1.3358.571 2.0607.573h15.9997c1.061 0 2.079-.423 2.829-1.173l9.68-9.685 5.368 3.581-2.703 2.703h-.002c-.75.75-1.172 1.768-1.172 2.829zm28-18.516c-3.044 1.327-6.289 2.138-9.6 2.4l-2.8-5.671c-.194-.384-.448-.736-.751-1.041l-.661-.661 13.812 2.77zm-10 14.516h-4.344l4.103-4.103c1.2-.056 2.377-.149 3.556-.316zm10-30.92c-5.217 1.549-10.598 2.479-16.032 2.775-.016-.569-.153-1.128-.4-1.642l-3.096-6.213h19.529zm-5.828-21.247c-4.109 3.23-8.924 5.446-14.052 6.464l-4.248.852c-.261-1.259-1.116-2.313-2.295-2.825l-5.296-2.272 22.493-5.623zm-19.832-26.2-2.34 1.568-5.076-3.3843 9.8-7.3517 5.28 1.7643c-2.085 2.9107-4.682 5.4194-7.664 7.4037zm14.983-20.5003c.215.1036.372.2964.429.5286.064.2285.023.475-.113.6714l-3.271 4.907-2.964-.9875 4.964-4.9642c.252-.2517.637-.3142.955-.1553zm-27.855 24.6523 5.693 3.796c-2.367 5.805-5.804 11.116-10.133 15.652l-6.7762-2.904 3.5803-4.772v-.001c2.8089-3.747 5.3609-7.679 7.6359-11.772zm-26.4967 32.892c.2411-.269.4464-.568.6089-.889l2.8911-5.787h1.5286c1.0607 0 2.0786-.422 2.8285-1.172l2.0875-2.084 23.0841 9.891v1.365c0 1.06.421 2.078 1.171 2.828l3.54 3.54 3.289 6.576v7.056c0 1.061.421 2.079 1.171 2.829l3.54 3.539 2.419 4.845-1.487 1.487-9.423-6.3c-1.586-1.057-3.7-.848-5.049.5l-10.828 10.829h-13.2361l-4.9069-2.928c-8.0892-4.738-16.7251-8.477-25.7161-11.133zm-34.9714 26.9v-7.312l14.3035-8.581zm1.6-41.676 1.5803-4.736 6.1161-2.039v-.002c1.125 5.116 1.2161 10.406.2679 15.557-1.6054-.636-3.3518-.83-5.0588-.566-1.7053.264-3.3107.979-4.65 2.07l-2.4-2.4c1.7929-2.391 3.1911-5.052 4.1446-7.884zm2.4 18.1c0-1.106.8946-2 2-2 1.1053 0 2 .894 2 2v2.135l-4 2.4zm-13.2608 61.101 5.5643-2.8 10 3.336 18.6231 11.177 3.0732 6.128v3.055c0 .62.1429 1.233.4197 1.788l2.7125 5.423-.8.8-2.3322.002c0-.1-.0553-.193-.0643-.293-.0303-.384-.116-.763-.2553-1.123-.05-.148-.1072-.295-.1732-.436-.2447-.489-.5876-.921-1.0072-1.273l-20-16c-.7089-.572-1.5893-.884-2.5-.888h-15.0555l-3.1036-1.551zm-.6 16.897h12.4553l16.4 13.103-.5553 1.107-.4714.945-15.7285-10.487c-.6643-.44-1.4428-.672-2.2393-.668h-12.5234zm-6.6624 28 2.6643-4h8.6587l6 4zm34.0516 0h-5.6c0-.136.0607-.261.0482-.4-.1196-1.191-.7643-2.268-1.7607-2.932l-12-8c-.6571-.434-1.4286-.668-2.2161-.668h-12c-1.3375 0-2.5857.668-3.3285 1.78l-6.8105 10.219h-6.4l10.6642-16h20.6752l18.4928 12.329 1.5607 1.039z"/><path d="m3.99996 75.9999h29.52864l6.8928 13.7874h-.0017c.6768 1.3589 2.0642 2.2161 3.5803 2.2161s2.9036-.8572 3.5803-2.2161l6.891-13.7874h29.5287c1.0607 0 2.0786-.4214 2.8286-1.1714s1.1714-1.7679 1.1714-2.8286v-47.9999c0-1.0607-.4214-2.0786-1.1714-2.8286s-1.7679-1.1714-2.8286-1.1714h-80c-2.20891 0-4 1.7911-4 4v47.9999c0 1.0607.421431 2.0786 1.17143 2.8286.75.75 1.76786 1.1714 2.82857 1.1714zm4-47.9999h72.00004v39.9999h-28c-1.5161 0-2.9018.8554-3.5804 2.2125l-4.4196 8.8429-4.4-8.8429c-.6804-1.3625-2.0768-2.2215-3.6-2.2125h-28.00004z"/><path d="m176 160v64c0 1.06.421 2.078 1.171 2.828s1.768 1.172 2.829 1.172h4.877l3.244 12.971h-.001c.375 1.496 1.576 2.643 3.087 2.948.261.056.527.082.793.081 1.259 0 2.445-.593 3.2-1.6l10.8-14.4h30c1.061 0 2.079-.422 2.829-1.172s1.171-1.768 1.171-2.828v-64c0-1.061-.421-2.079-1.171-2.829s-1.768-1.171-2.829-1.171h-56c-2.209 0-4 1.791-4 4zm8 4h48v56h-28c-1.259 0-2.445.593-3.2 1.6l-6.961 9.276-1.961-7.848h.002c-.446-1.78-2.046-3.028-3.88-3.028h-4z"/><path d="m192 172h32v8h-32z"/><path d="m208 188h16v8h-16z"/><path d="m192 204h24v8h-24z"/><path d="m192 188h8v8h-8z"/><path d="m32 36h40v8h-40z"/><path d="m16 51.9999h40v8h-40z"/><path d="m16 36h8v8h-8z"/><path d="m252 0h-248c-2.20891 0-4 1.79108-4 3.99999v8.00001h8v-4.00001h240v23.99991h8v-27.99991c0-1.0607-.421-2.07858-1.171-2.82856-.75-.749991-1.768-1.17143-2.829-1.17143z"/><path d="m0 83.9999h8v144.0001h-8z"/><path d="m248 112h-44c-2.209 0-4 1.791-4 4v20c0 1.061.421 2.078 1.171 2.828s1.768 1.172 2.829 1.172h44v108h-76v-12c0-1.061-.421-2.079-1.171-2.829s-1.768-1.171-2.829-1.171h-60c-2.209 0-4 1.791-4 4v12h-28v8h176c1.061 0 2.079-.422 2.829-1.172s1.171-1.768 1.171-2.828v-156.0001h-8zm-136 128h52v8h-52zm96-108v-12h40v12z"/><path d="m64 51.9999h8v8h-8z"/><path d="m192 32h-88c-2.209 0-4 1.7911-4 4v43.9999h8v-39.9999h80v55.9999h-44v8.0001h48c1.061 0 2.079-.422 2.829-1.172s1.171-1.767 1.171-2.8281v-63.9999c0-1.0607-.421-2.0786-1.171-2.8286s-1.768-1.1714-2.829-1.1714z"/><path d="m212 43.9999v39.9999c0 1.0607.421 2.0786 1.171 2.8286s1.768 1.1714 2.829 1.1714h40v-8h-36v-31.9999h36v-8h-40c-2.209 0-4 1.7911-4 4z"/><path d="m228 59.9999h8v8h-8z"/><path d="m244 59.9999h8v8h-8z"/></g></svg>

<svg xmlns="http://www.w3.org/2000/svg" width="256" height="256" fill="none" viewBox="0 0 256 256"><path fill="#000" d="M70.2218 240.672L69.2021 240H76.0021C77.0628 240 78.0807 239.579 78.8307 238.829L82.8307 234.829C84.0486 233.611 84.3503 231.752 83.5825 230.213L83.3592 229.764L89.2664 227.796C89.854 227.598 90.3896 227.266 90.8307 226.829L94.37 223.289V223.288C100.002 222.259 104.715 218.418 106.857 213.107C107.389 211.948 107.818 210.743 108.138 209.507L122.831 194.814V194.816C123.577 194.069 123.999 193.057 124.002 192V188H136.002C137.261 188 138.447 187.407 139.202 186.4L151.202 170.4L151.174 170.38C151.702 169.698 151.993 168.862 152.002 168V160C152.002 158.098 150.665 156.46 148.802 156.08L148.563 156.032L148.654 156L149.266 155.796C150.9 155.252 152.002 153.723 152.002 152V140C152.002 138.939 151.581 137.921 150.831 137.171C150.081 136.421 149.063 136 148.002 136H140.341C142.672 134.498 144.847 132.764 146.83 130.829C148.391 129.266 148.391 126.734 146.83 125.171L138.83 117.171C137.836 116.179 136.393 115.779 135.03 116.12L114.13 121.343V121.345C116.198 117.963 117.913 114.377 119.246 110.645L122.778 108.29V108.288C128.085 104.738 132.404 99.897 135.33 94.2202L140.298 86.7646C141.957 84.3111 142.277 81.1898 141.146 78.4501C140.016 75.7126 137.587 73.7251 134.68 73.1574C131.771 72.5913 128.775 73.5199 126.698 75.6324L117.358 84.9718L101.601 96.8003V96.8235C101.097 97.1878 100.687 97.6628 100.401 98.2128C97.8457 103.32 94.8385 108.188 91.4136 112.755L84.9528 121.372L82.3457 124H80.0011C78.485 124 77.0992 124.856 76.4207 126.213L72.6654 133.729L64.4816 142.823L62.8298 141.172C62.103 140.461 61.1298 140.059 60.1137 140.048L60.8137 137.248C63.0048 128.495 62.653 119.298 59.7976 110.74C59.4619 109.734 58.7405 108.9 57.7923 108.425C56.8423 107.95 55.744 107.874 54.7369 108.208L42.7369 112.208C41.5423 112.606 40.603 113.545 40.2048 114.74L38.0012 121.368C37.0173 124.308 35.3655 126.977 33.1779 129.172C31.6154 130.734 31.6154 133.266 33.1779 134.829L40.0387 141.69C40.0387 141.793 40.0065 141.893 40.0065 142.002V151.338L37.9458 152.574V152.572C36.7405 153.295 36.003 154.595 36.0012 156V176H36.0458C36.0315 176.618 36.1601 177.229 36.4208 177.788L39.6815 184.308L36.7298 193.163L30.2136 196.418V196.42C29.5904 196.734 29.0601 197.202 28.6726 197.781L20.6726 209.781C20.0351 210.736 19.8387 211.918 20.1333 213.027C20.4279 214.138 21.1851 215.068 22.2136 215.581L26.1619 217.552L21.8619 224H20.0012C18.6637 224 17.4155 224.668 16.6726 225.78L0.672619 249.78C-0.145256 251.007 -0.222008 252.586 0.474408 253.888C1.16904 255.188 2.5262 256 4.00117 256H64.0012C65.5172 256 66.903 255.145 67.5815 253.788L71.5815 245.788C72.4833 243.984 71.8994 241.791 70.2208 240.672L70.2218 240.672ZM80.0023 222.449V220C80.0023 219.381 79.8595 218.768 79.5827 218.213L75.5827 210.213C75.2416 209.532 74.7149 208.963 74.0631 208.572L54.0631 196.572C53.8095 196.42 53.5416 196.297 53.2631 196.204L45.0596 193.472L46.8864 188H51.0578L66.1705 195.555L66.2152 195.579V195.58C66.7705 195.857 67.383 196 68.0027 196H70.3473L72.0027 197.655V200C71.9938 201.523 72.8527 202.92 74.2152 203.6L82.2152 207.6C82.6223 207.8 83.0598 207.929 83.5098 207.98C83.1169 209.921 83.0509 211.916 83.3152 213.88C83.6384 216.212 84.6437 218.398 86.2062 220.161L85.8419 220.525L80.0023 222.449ZM99.622 209.704C97.5738 214.056 94.022 215.911 92.5934 215.239H92.5952C91.7666 214.643 91.2613 213.697 91.2256 212.677C90.997 210.482 91.3988 208.27 92.3827 206.297C93.3988 203.454 95.788 201.32 98.7255 200.629C98.9612 200.624 99.1952 200.668 99.4095 200.761C100.238 201.358 100.743 202.304 100.779 203.324C101.008 205.518 100.606 207.731 99.622 209.704V209.704ZM116.002 184V190.345L107.642 198.7C106.709 196.445 104.99 194.605 102.802 193.523C97.8149 191.172 91.7184 193.575 87.5703 198.979L87.0186 199.118L84.4543 199.757L80.0025 197.529V196C80.0025 194.94 79.581 193.922 78.831 193.172L74.831 189.172C74.4596 188.802 74.0203 188.507 73.5346 188.307C73.4061 188.252 73.2543 188.263 73.1346 188.22C72.7757 188.097 72.4007 188.022 72.0221 188H68.915L53.7918 180.436H53.79C53.2364 180.154 52.6239 180.004 52.0025 180H46.4738L44.797 176.652L50.5808 170.229H50.5825C60.2273 172.768 69.4808 176.613 78.0861 181.655L83.9416 185.172C84.5648 185.545 85.2774 185.743 86.0023 185.745H102.002C103.063 185.745 104.081 185.322 104.831 184.572L114.511 174.887L119.879 178.468L117.176 181.171H117.174C116.424 181.921 116.002 182.939 116.002 184V184ZM144.002 165.484C140.958 166.811 137.713 167.622 134.402 167.884L131.602 162.213C131.408 161.829 131.154 161.477 130.851 161.172L130.19 160.511L144.002 163.281L144.002 165.484ZM134.002 180H129.658L133.761 175.897C134.961 175.841 136.138 175.748 137.317 175.581L134.002 180ZM144.002 149.08C138.785 150.629 133.404 151.559 127.97 151.855C127.954 151.286 127.817 150.727 127.57 150.213L124.474 144H144.003L144.002 149.08ZM138.174 127.833C134.065 131.063 129.25 133.279 124.122 134.297L119.874 135.149C119.613 133.89 118.758 132.836 117.579 132.324L112.283 130.052L134.776 124.429L138.174 127.833ZM118.342 101.633L116.002 103.201L110.926 99.8167L120.726 92.465L126.006 94.2293C123.921 97.14 121.324 99.6487 118.342 101.633L118.342 101.633ZM133.325 81.1327C133.54 81.2363 133.697 81.4291 133.754 81.6613C133.818 81.8898 133.777 82.1363 133.641 82.3327L130.37 87.2397L127.406 86.2522L132.37 81.288C132.622 81.0363 133.007 80.9738 133.325 81.1327L133.325 81.1327ZM105.47 105.785L111.163 109.581C108.796 115.386 105.359 120.697 101.03 125.233L94.2538 122.329L97.8341 117.557V117.556C100.643 113.809 103.195 109.877 105.47 105.784V105.785ZM78.9733 138.677C79.2144 138.408 79.4197 138.109 79.5822 137.788L82.4733 132.001H84.0019C85.0626 132.001 86.0805 131.579 86.8304 130.829L88.9179 128.745L112.002 138.636V140.001C112.002 141.061 112.423 142.079 113.173 142.829L116.713 146.369L120.002 152.945V160.001C120.002 161.062 120.423 162.08 121.173 162.83L124.713 166.369L127.132 171.214L125.645 172.701L116.222 166.401C114.636 165.344 112.522 165.553 111.173 166.901L100.345 177.73H87.1089L82.202 174.802C74.1128 170.064 65.4769 166.325 56.4859 163.669L78.9733 138.677ZM44.0019 165.577V158.265L58.3054 149.684L44.0019 165.577ZM45.6019 123.901L47.1822 119.165L53.2983 117.126V117.124C54.4233 122.24 54.5144 127.53 53.5662 132.681C51.9608 132.045 50.2144 131.851 48.5074 132.115C46.8021 132.379 45.1967 133.094 43.8574 134.185L41.4574 131.785C43.2503 129.394 44.6485 126.733 45.602 123.901L45.6019 123.901ZM48.0019 142.001C48.0019 140.895 48.8965 140.001 50.0019 140.001C51.1072 140.001 52.0019 140.895 52.0019 142.001V144.136L48.0019 146.536V142.001ZM34.7411 203.102L40.3054 200.302L50.3054 203.638L68.9285 214.815L72.0017 220.943V223.998C72.0017 224.618 72.1446 225.231 72.4214 225.786L75.1339 231.209L74.3339 232.009L72.0017 232.011C72.0017 231.911 71.9464 231.818 71.9374 231.718C71.9071 231.334 71.8214 230.955 71.6821 230.595C71.6321 230.447 71.5749 230.3 71.5089 230.159C71.2642 229.67 70.9213 229.238 70.5017 228.886L50.5017 212.886C49.7928 212.314 48.9124 212.002 48.0017 211.998H32.9462L29.8426 210.447L34.7411 203.102ZM34.1411 219.999H46.5964L62.9964 233.102L62.4411 234.209L61.9697 235.154L46.2412 224.667C45.5769 224.227 44.7984 223.995 44.0019 223.999H31.4785L34.1411 219.999ZM27.4787 247.999L30.143 243.999H38.8017L44.8017 247.999H27.4787ZM61.5303 247.999H55.9303C55.9303 247.863 55.991 247.738 55.9785 247.599C55.8589 246.408 55.2142 245.331 54.2178 244.667L42.2178 236.667C41.5607 236.233 40.7892 235.999 40.0017 235.999H28.0017C26.6642 235.999 25.416 236.667 24.6732 237.779L17.8627 247.998H11.4627L22.1269 231.998H42.8021L61.2949 244.327L62.8556 245.366L61.5303 247.999Z"/><path fill="#000" d="M3.99996 75.9999H33.5286L40.4214 89.7873H40.4197C41.0965 91.1462 42.4839 92.0034 44 92.0034C45.5161 92.0034 46.9036 91.1462 47.5803 89.7873L54.4713 75.9999H84C85.0607 75.9999 86.0786 75.5785 86.8286 74.8285C87.5786 74.0785 88 73.0606 88 71.9999V24C88 22.9393 87.5786 21.9214 86.8286 21.1714C86.0786 20.4214 85.0607 20 84 20H4C1.79109 20 0 21.7911 0 24V71.9999C0 73.0606 0.421431 74.0785 1.17143 74.8285C1.92143 75.5785 2.93929 75.9999 4 75.9999H3.99996ZM7.99996 28H80V67.9999H52C50.4839 67.9999 49.0982 68.8553 48.4196 70.2124L44 79.0553L39.6 70.2124C38.9196 68.8499 37.5232 67.9909 36 67.9999H7.99996V28Z"/><path fill="#000" d="M176 160V224C176 225.06 176.421 226.078 177.171 226.828C177.921 227.578 178.939 228 180 228H184.877L188.121 240.971H188.12C188.495 242.467 189.696 243.614 191.207 243.919C191.468 243.975 191.734 244.001 192 244C193.259 244 194.445 243.407 195.2 242.4L206 228H236C237.061 228 238.079 227.578 238.829 226.828C239.579 226.078 240 225.06 240 224V160C240 158.939 239.579 157.921 238.829 157.171C238.079 156.421 237.061 156 236 156H180C177.791 156 176 157.791 176 160L176 160ZM184 164H232V220H204C202.741 220 201.555 220.593 200.8 221.6L193.839 230.876L191.878 223.028H191.88C191.434 221.248 189.834 220 188 220H184L184 164Z"/><path fill="#000" d="M192 172H224V180H192V172Z"/><path fill="#000" d="M208 188H224V196H208V188Z"/><path fill="#000" d="M192 204H216V212H192V204Z"/><path fill="#000" d="M192 188H200V196H192V188Z"/><path fill="#000" d="M32 36H72V44H32V36Z"/><path fill="#000" d="M16 51.9999H56V59.9999H16V51.9999Z"/><path fill="#000" d="M16 36H24V44H16V36Z"/><path fill="#000" d="M252 0H4C1.79109 0 0 1.79108 0 3.99999V12H8V7.99999H248V31.9999H256V3.99999C256 2.93929 255.579 1.92141 254.829 1.17143C254.079 0.421439 253.061 0 252 0Z"/><path fill="#000" d="M0 83.9999H8V228H0V83.9999Z"/><path fill="#000" d="M248 112H204C201.791 112 200 113.791 200 116V136C200 137.061 200.421 138.078 201.171 138.828C201.921 139.578 202.939 140 204 140H248V248H172V236C172 234.939 171.579 233.921 170.829 233.171C170.079 232.421 169.061 232 168 232H108C105.791 232 104 233.791 104 236V248H76V256H252C253.061 256 254.079 255.578 254.829 254.828C255.579 254.078 256 253.06 256 252V95.9999H248V112ZM112 240H164V248H112V240ZM208 132V120H248V132H208Z"/><path fill="#000" d="M64 51.9999H72V59.9999H64V51.9999Z"/><path fill="#000" d="M192 32H104C101.791 32 100 33.7911 100 36V79.9999H108V40H188V95.9999H144V104H192C193.061 104 194.079 103.578 194.829 102.828C195.579 102.078 196 101.061 196 99.9999V36C196 34.9393 195.579 33.9214 194.829 33.1714C194.079 32.4214 193.061 32 192 32Z"/><path fill="#000" d="M212 43.9999V83.9998C212 85.0605 212.421 86.0784 213.171 86.8284C213.921 87.5784 214.939 87.9998 216 87.9998H256V79.9998H220V47.9999H256V39.9999H216C213.791 39.9999 212 41.791 212 43.9999Z"/><path fill="#000" d="M228 59.9999H236V67.9999H228V59.9999Z"/><path fill="#000" d="M244 59.9999H252V67.9999H244V59.9999Z"/></svg>
